X: 33215
T: Prudhoe Mill
R: reel
M: 4/4
K: Gmajor
|:GA|"G" BDGB dGBd|"C"eGce g2fe|"G"dgBg GgBg|"D7"c2 A2 A2 GA|
"G"BDGB dGBd|"C"eGce g2fe|"G"dgBg "D7" cgAg|"G"B2G2 G2:|
|:Bd|"C"egce gceg|"G"dgBd g2Bc|"Em" dgGg EgGg|"D7" c2A2 A2Bc|
"C" egce gceg|"G" dgBd g2Bc|"G" dgBg "D7"cgAg|"G" B2G2 G2:|

